X:1
T:The Black Robe
C:Trad.
M:6/8
R:jig
L:1/8
K:Dmaj
|: d | .cA=c {Bc}BGB | .cAA {BAG}A2d | .cA=c {Bc}BGB | {AB}AFD {A}D2d |
.cA=c {Bc}BGB | .cAA {BAG}A2F | ~G3 {c}BGB | {AB}AFD {A}D2 :|
|: e | ~f3 ~g3 | {b}afd {AB}cBA | ~f3 ~g3 | a.fd dfg |
{b}afg {a}gfe | fed {ged}e2d | cA=c {Bc}BGB | {AB}AFD {A}D2 :|
